X:1
T:Ceata lui Pitigoi
T:Ceata lui Pitigoi
T:Dupa Nelu Ionescu
C:Dupa Nelu Ionescu
%%score { 1 | 2 }
L:1/8
Q:1/4=90
M:2/4
K:C
V:1 treble nm="Piano" snm="Pno."
V:2 bass 
V:1
 (E2 DC | EF G2) | (EF GF | ED C2) | [CG]2 z2 | [CG]2 z2 | [CG]2 [CG]2 | z2 [CG]2 | C2 z2 | C2 z2 | %10
w: Cea- ta lui|Pi- ti- goi,|Tre- ce man- dra|prin za- voi|||||||
 EF GF | ED C2 | (EC CC | EC C2) | z2 C2 | z2 C2 |] %16
w: Dai in- tru- nul|pi- ca doi.|A- o- leu ce|ta- ra boi,|||
V:2
 C,2 z2 | C,2 z2 | G,2 z2 | (G,F, E,2) | (E,2 D,C, | E,F, G,2) | (E,F, G,F, | E,D, C,2) | %8
w: ||||Toti sunt sol-|dati de soi,|Dai in- tru- nul|pi- ca doi.|
 (E,C, C,C, | E,C, C,2) | C,2 z2 | (G,F, E,2) | C,2 z2 | C,2 z2 | (E,F, G,F, | E,D, C,2) |] %16
w: A- o- leu ce|ta- ra- boi,|||||Dai in- tru- nul|pi- ca doi.|

